images/neutrino-dark.svg

<?xml version="1.0" encoding="UTF-8" standalone="no"?>
<svg
   viewBox="0 0 474 86.972481"
   class="css-1euhbwl"
   version="1.1"
   id="svg22"
   sodipodi:docname="neutrino-dark.svg"
   inkscape:version="1.1.2 (0a00cf5339, 2022-02-04)"
   width="474"
   height="86.972481"
   xmlns:inkscape="http://www.inkscape.org/namespaces/inkscape"
   xmlns:sodipodi="http://sodipodi.sourceforge.net/DTD/sodipodi-0.dtd"
   xmlns="http://www.w3.org/2000/svg"
   xmlns:svg="http://www.w3.org/2000/svg">
  <defs
     id="defs26" />
  <sodipodi:namedview
     id="namedview24"
     pagecolor="#ffffff"
     bordercolor="#666666"
     borderopacity="1.0"
     inkscape:pageshadow="2"
     inkscape:pageopacity="0.0"
     inkscape:pagecheckerboard="0"
     showgrid="false"
     inkscape:zoom="5.7110092"
     inkscape:cx="57.520482"
     inkscape:cy="5.4281124"
     inkscape:window-width="1920"
     inkscape:window-height="1043"
     inkscape:window-x="0"
     inkscape:window-y="0"
     inkscape:window-maximized="1"
     inkscape:current-layer="svg22"
     fit-margin-top="0"
     fit-margin-left="0"
     fit-margin-right="0"
     fit-margin-bottom="0" />
  <g
     id="g20"
     style="fill:#333333"
     transform="scale(4.3486239)">
    <path
       d="m 7.61185,7.1041 c 1.55185,0 2.80105,0.46556 3.74775,1.39667 0.9621,0.93112 1.4432,2.31223 1.4432,4.14343 v 7.1696 H 9.17146 v -6.6109 c 0,-0.9932 -0.21726,-1.7303 -0.65178,-2.2114 -0.43451,-0.4966 -1.06302,-0.7449 -1.8855,-0.7449 -0.91559,0 -1.64497,0.2871 -2.18812,0.8613 -0.54314,0.5587 -0.81472,1.3967 -0.81472,2.514 v 6.1919 H 0 V 7.29032 H 3.4684 V 8.75683 C 3.94947,8.2292 4.54694,7.82572 5.26079,7.54638 5.97464,7.25153 6.75833,7.1041 7.61185,7.1041 Z"
       fill="white"
       id="path2"
       style="fill:#333333" />
    <path
       d="m 23.4702,17.0903 c 0.6518,0 1.226,-0.0931 1.7226,-0.2793 0.5121,-0.2018 0.9854,-0.5122 1.4199,-0.9312 l 1.9321,2.095 C 27.3654,19.325 25.6428,20 23.3771,20 c -1.4122,0 -2.6614,-0.2716 -3.7477,-0.8147 -1.0863,-0.5587 -1.9243,-1.3268 -2.514,-2.3045 -0.5897,-0.9777 -0.8846,-2.0873 -0.8846,-3.3287 0,-1.226 0.2871,-2.3278 0.8613,-3.3055 0.5897,-0.99318 1.3889,-1.76135 2.3976,-2.3045 1.0242,-0.55866 2.1726,-0.838 3.4451,-0.838 1.195,0 2.2813,0.25606 3.2589,0.76817 0.9777,0.49659 1.7536,1.22597 2.3278,2.18813 0.5897,0.9466 0.8846,2.0717 0.8846,3.3753 l -9.2646,1.7924 c 0.2638,0.6207 0.6751,1.0863 1.2337,1.3966 0.5742,0.3104 1.2725,0.4656 2.095,0.4656 z M 22.9348,9.85089 c -0.9156,0 -1.6604,0.29481 -2.2346,0.88451 -0.5742,0.5897 -0.8768,1.4045 -0.9079,2.4442 l 6.0988,-1.1872 C 25.7204,11.3407 25.3713,10.8208 24.8436,10.4328 24.316,10.0449 23.6797,9.85089 22.9348,9.85089 Z"
       fill="white"
       id="path4"
       style="fill:#333333" />
    <path
       d="M 45.3947,7.29032 V 19.8138 H 41.9496 V 18.324 C 41.4685,18.8672 40.8943,19.2862 40.227,19.581 39.5597,19.8604 38.8381,20 38.0622,20 36.4172,20 35.1136,19.5267 34.1515,18.5801 33.1893,17.6334 32.7083,16.229 32.7083,14.3668 V 7.29032 h 3.6313 v 6.54108 c 0,2.0174 0.8458,3.0261 2.5373,3.0261 0.869,0 1.5674,-0.2793 2.095,-0.838 0.5276,-0.5742 0.7914,-1.4199 0.7914,-2.5373 V 7.29032 Z"
       fill="white"
       id="path6"
       style="fill:#333333" />
    <path
       d="m 57.232,19.2086 c -0.3569,0.2638 -0.7992,0.4655 -1.3268,0.6052 C 55.393,19.9379 54.8577,20 54.299,20 52.7937,20 51.6376,19.6198 50.8306,18.8594 50.0236,18.099 49.6201,16.9817 49.6201,15.5074 V 4.52026 h 3.6314 v 3.0494 h 3.0959 V 10.363 h -3.0959 v 5.0978 c 0,0.5277 0.1319,0.9389 0.3957,1.2338 0.2638,0.2793 0.644,0.419 1.1406,0.419 0.5587,0 1.0553,-0.1552 1.4898,-0.4656 z"
       fill="white"
       id="path8"
       style="fill:#333333" />
    <path
       d="M 63.6825,8.94305 C 64.117,8.33783 64.699,7.88003 65.4283,7.56966 66.1732,7.25929 67.0267,7.1041 67.9889,7.1041 v 3.352 c -0.4035,-0.031 -0.6751,-0.0465 -0.8147,-0.0465 -1.0398,0 -1.8545,0.2948 -2.4442,0.8845 -0.5897,0.5742 -0.8846,1.4432 -0.8846,2.6071 v 5.9126 H 60.2141 V 7.29032 h 3.4684 z"
       fill="white"
       id="path10"
       style="fill:#333333" />
    <path
       d="m 71.0792,7.29032 h 3.6313 V 19.8138 h -3.6313 z"
       fill="white"
       id="path12"
       style="fill:#333333" />
    <path
       d="m 86.6237,7.1041 c 1.5518,0 2.8011,0.46556 3.7477,1.39667 0.9622,0.93112 1.4433,2.31223 1.4433,4.14343 v 7.1696 h -3.6314 v -6.6109 c 0,-0.9932 -0.2173,-1.7303 -0.6518,-2.2114 -0.4345,-0.4966 -1.063,-0.7449 -1.8855,-0.7449 -0.9156,0 -1.6449,0.2871 -2.1881,0.8613 -0.5431,0.5587 -0.8147,1.3967 -0.8147,2.514 v 6.1919 H 79.0118 V 7.29032 h 3.4684 V 8.75683 C 82.9613,8.2292 83.5588,7.82572 84.2726,7.54638 84.9865,7.25153 85.7702,7.1041 86.6237,7.1041 Z"
       fill="white"
       id="path14"
       style="fill:#333333" />
    <path
       d="m 102.133,20 c -1.319,0 -2.5063,-0.2716 -3.5616,-0.8147 -1.0397,-0.5587 -1.8545,-1.3268 -2.4442,-2.3045 -0.5897,-0.9777 -0.8845,-2.0873 -0.8845,-3.3287 0,-1.2415 0.2948,-2.3511 0.8845,-3.3288 0.5897,-0.97764 1.4045,-1.73805 2.4442,-2.2812 1.0553,-0.55866 2.2426,-0.838 3.5616,-0.838 1.319,0 2.498,0.27934 3.538,0.838 1.04,0.54315 1.855,1.30356 2.444,2.2812 0.59,0.9777 0.885,2.0873 0.885,3.3288 0,1.2414 -0.295,2.351 -0.885,3.3287 -0.589,0.9777 -1.404,1.7458 -2.444,2.3045 C 104.631,19.7284 103.452,20 102.133,20 Z m 0,-2.9795 c 0.931,0 1.691,-0.3104 2.281,-0.9312 0.605,-0.6362 0.908,-1.482 0.908,-2.5372 0,-1.0553 -0.303,-1.8933 -0.908,-2.514 -0.59,-0.6363 -1.35,-0.9544 -2.281,-0.9544 -0.931,0 -1.699,0.3181 -2.3046,0.9544 -0.6052,0.6207 -0.9078,1.4587 -0.9078,2.514 0,1.0552 0.3026,1.901 0.9078,2.5372 0.6056,0.6208 1.3736,0.9312 2.3046,0.9312 z"
       fill="white"
       id="path16"
       style="fill:#333333" />
    <path
       d="M 72.8703,0 75.7822,2.91188 72.8703,5.82377 69.9584,2.91188 Z"
       fill="white"
       id="path18"
       style="fill:#333333" />
  </g>
</svg>

<?xml version="1.0" encoding="UTF-8" standalone="no"?>
<svg
   viewBox="0 0 109 22"
   class="css-1euhbwl"
   version="1.1"
   id="svg22"
   sodipodi:docname="neutrino-dark.svg"
   inkscape:version="1.1.1 (3bf5ae0d25, 2021-09-20)"
   xmlns:inkscape="http://www.inkscape.org/namespaces/inkscape"
   xmlns:sodipodi="http://sodipodi.sourceforge.net/DTD/sodipodi-0.dtd"
   xmlns="http://www.w3.org/2000/svg"
   xmlns:svg="http://www.w3.org/2000/svg">
  <defs
     id="defs26" />
  <sodipodi:namedview
     id="namedview24"
     pagecolor="#ffffff"
     bordercolor="#666666"
     borderopacity="1.0"
     inkscape:pageshadow="2"
     inkscape:pageopacity="0.0"
     inkscape:pagecheckerboard="0"
     showgrid="false"
     inkscape:zoom="5.7110092"
     inkscape:cx="57.520482"
     inkscape:cy="5.4281124"
     inkscape:window-width="1920"
     inkscape:window-height="1011"
     inkscape:window-x="0"
     inkscape:window-y="0"
     inkscape:window-maximized="1"
     inkscape:current-layer="svg22" />
  <g
     id="g20"
     style="fill:#333333">
    <path
       d="M7.61185 7.1041C9.1637 7.1041 10.4129 7.56966 11.3596 8.50077C12.3217 9.43189 12.8028 10.813 12.8028 12.6442V19.8138H9.17146V13.2029C9.17146 12.2097 8.9542 11.4726 8.51968 10.9915C8.08517 10.4949 7.45666 10.2466 6.63418 10.2466C5.71859 10.2466 4.98921 10.5337 4.44606 11.1079C3.90292 11.6666 3.63134 12.5046 3.63134 13.6219V19.8138H0V7.29032H3.4684V8.75683C3.94947 8.2292 4.54694 7.82572 5.26079 7.54638C5.97464 7.25153 6.75833 7.1041 7.61185 7.1041Z"
       fill="white"
       id="path2"
       style="fill:#333333" />
    <path
       d="M23.4702 17.0903C24.122 17.0903 24.6962 16.9972 25.1928 16.811C25.7049 16.6092 26.1782 16.2988 26.6127 15.8798L28.5448 17.9748C27.3654 19.325 25.6428 20 23.3771 20C21.9649 20 20.7157 19.7284 19.6294 19.1853C18.5431 18.6266 17.7051 17.8585 17.1154 16.8808C16.5257 15.9031 16.2308 14.7935 16.2308 13.5521C16.2308 12.3261 16.5179 11.2243 17.0921 10.2466C17.6818 9.25342 18.481 8.48525 19.4897 7.9421C20.5139 7.38344 21.6623 7.1041 22.9348 7.1041C24.1298 7.1041 25.2161 7.36016 26.1937 7.87227C27.1714 8.36886 27.9473 9.09824 28.5215 10.0604C29.1112 11.007 29.4061 12.1321 29.4061 13.4357L20.1415 15.2281C20.4053 15.8488 20.8166 16.3144 21.3752 16.6247C21.9494 16.9351 22.6477 17.0903 23.4702 17.0903ZM22.9348 9.85089C22.0192 9.85089 21.2744 10.1457 20.7002 10.7354C20.126 11.3251 19.8234 12.1399 19.7923 13.1796L25.8911 11.9924C25.7204 11.3407 25.3713 10.8208 24.8436 10.4328C24.316 10.0449 23.6797 9.85089 22.9348 9.85089Z"
       fill="white"
       id="path4"
       style="fill:#333333" />
    <path
       d="M45.3947 7.29032V19.8138H41.9496V18.324C41.4685 18.8672 40.8943 19.2862 40.227 19.581C39.5597 19.8604 38.8381 20 38.0622 20C36.4172 20 35.1136 19.5267 34.1515 18.5801C33.1893 17.6334 32.7083 16.229 32.7083 14.3668V7.29032H36.3396V13.8314C36.3396 15.8488 37.1854 16.8575 38.8769 16.8575C39.7459 16.8575 40.4443 16.5782 40.9719 16.0195C41.4995 15.4453 41.7633 14.5996 41.7633 13.4822V7.29032H45.3947Z"
       fill="white"
       id="path6"
       style="fill:#333333" />
    <path
       d="M57.232 19.2086C56.8751 19.4724 56.4328 19.6741 55.9052 19.8138C55.393 19.9379 54.8577 20 54.299 20C52.7937 20 51.6376 19.6198 50.8306 18.8594C50.0236 18.099 49.6201 16.9817 49.6201 15.5074V4.52026H53.2515V7.56966H56.3474V10.363H53.2515V15.4608C53.2515 15.9885 53.3834 16.3997 53.6472 16.6946C53.911 16.9739 54.2912 17.1136 54.7878 17.1136C55.3465 17.1136 55.8431 16.9584 56.2776 16.648L57.232 19.2086Z"
       fill="white"
       id="path8"
       style="fill:#333333" />
    <path
       d="M63.6825 8.94305C64.117 8.33783 64.699 7.88003 65.4283 7.56966C66.1732 7.25929 67.0267 7.1041 67.9889 7.1041V10.4561C67.5854 10.4251 67.3138 10.4096 67.1742 10.4096C66.1344 10.4096 65.3197 10.7044 64.73 11.2941C64.1403 11.8683 63.8454 12.7373 63.8454 13.9012V19.8138H60.2141V7.29032H63.6825V8.94305Z"
       fill="white"
       id="path10"
       style="fill:#333333" />
    <path
       d="M71.0792 7.29032H74.7105V19.8138H71.0792V7.29032Z"
       fill="white"
       id="path12"
       style="fill:#333333" />
    <path
       d="M86.6237 7.1041C88.1755 7.1041 89.4248 7.56966 90.3714 8.50077C91.3336 9.43189 91.8147 10.813 91.8147 12.6442V19.8138H88.1833V13.2029C88.1833 12.2097 87.966 11.4726 87.5315 10.9915C87.097 10.4949 86.4685 10.2466 85.646 10.2466C84.7304 10.2466 84.0011 10.5337 83.4579 11.1079C82.9148 11.6666 82.6432 12.5046 82.6432 13.6219V19.8138H79.0118V7.29032H82.4802V8.75683C82.9613 8.2292 83.5588 7.82572 84.2726 7.54638C84.9865 7.25153 85.7702 7.1041 86.6237 7.1041Z"
       fill="white"
       id="path14"
       style="fill:#333333" />
    <path
       d="M102.133 20C100.814 20 99.6267 19.7284 98.5714 19.1853C97.5317 18.6266 96.7169 17.8585 96.1272 16.8808C95.5375 15.9031 95.2427 14.7935 95.2427 13.5521C95.2427 12.3106 95.5375 11.201 96.1272 10.2233C96.7169 9.24566 97.5317 8.48525 98.5714 7.9421C99.6267 7.38344 100.814 7.1041 102.133 7.1041C103.452 7.1041 104.631 7.38344 105.671 7.9421C106.711 8.48525 107.526 9.24566 108.115 10.2233C108.705 11.201 109 12.3106 109 13.5521C109 14.7935 108.705 15.9031 108.115 16.8808C107.526 17.8585 106.711 18.6266 105.671 19.1853C104.631 19.7284 103.452 20 102.133 20ZM102.133 17.0205C103.064 17.0205 103.824 16.7101 104.414 16.0893C105.019 15.4531 105.322 14.6073 105.322 13.5521C105.322 12.4968 105.019 11.6588 104.414 11.0381C103.824 10.4018 103.064 10.0837 102.133 10.0837C101.202 10.0837 100.434 10.4018 99.8284 11.0381C99.2232 11.6588 98.9206 12.4968 98.9206 13.5521C98.9206 14.6073 99.2232 15.4531 99.8284 16.0893C100.434 16.7101 101.202 17.0205 102.133 17.0205Z"
       fill="white"
       id="path16"
       style="fill:#333333" />
    <path
       d="M72.8703 0L75.7822 2.91188L72.8703 5.82377L69.9584 2.91188L72.8703 0Z"
       fill="white"
       id="path18"
       style="fill:#333333" />
  </g>
</svg>
